X:511
T:Reel 511
M:4/4
K:Amix
L:1/8
E2EF GFGE|DB,A,B, GB,GF|E2A,B, EDEF|GEDF EA,A,2:|A2AG EGGA|BAGA BAAG|Beed edBe|Aeed B2A2|Beed edBc|dBec dBAF|EAAG EGGF|Beed BAA2|
